X:1
T:Title
%%score { ( 1 4 ) | ( 2 3 ) }
L:1/8
M:3/4
K:Ab
V:1 treble nm="Grand Piano"
V:4 treble 
V:2 bass 
V:3 bass 
V:1
 z2 z2[Q:1/4=121] [CE]2 | [CE]2 [CF]2 [CG]2 | [CA]2 [DB]2 [=D_c]2 | [Ec]6 | [CEA]4 [B,DG]2 | %5
 [DB]2 [CA]3 [CG] | [DB]2 [CA]2 F2 | G6- | G4 z2 | E2 F2 G2 | A2 B2 c2 | d6 | B4 G2 | A2 G2 A2 | %14
 F2 G2 A2 | B4 B2- | B4 z2 | [CE]2 [CF]2 [CG]2 | [CA]2 [DB]2 [=D_c]2 | [Ec]6 | [CEA]4 c2 | %21
 c2 _c2 =c2 | e2 z2 z2 | [Fc]6 | [B,FB]4 [DF]2 | [A,DF]2 [A,EG]2 .[DFA]2 | [_CFA]2 [CFG]2 [CFA]2 | %27
 [Ae]6 | [_Ge]4 [Fd]2 | c2 d2 c2 | B2 F2 G2 | [CA]6- | [CA]4 z2 | [Ec]2 [Ec]2 [Ec]2 | %34
 [Ec]>[CA] A,2 z2 | [_CF]2 [CF]2 [CF]2 | z2 [=CE]4 | A2 A2 A2 | [DA]2 [DG]2 [DA]2 | B2 B2 c2 | B6 | %41
 [Ec]2 [Ec]2 [Ec]2 | [Ec]>[CA] [CE]4 | c2 c2 c2 | [Fd]>[DB] [DF]4 | [=DF]2 [DF]2 [DG]2 | %46
 [=DA]2 [DG]2 [DA]2 | e2- [_Ge]4 | [Fd]6 | %49
 [Ec]2 [Fd]2 [Ec]2[Q:1/4=119][Q:1/4=117][Q:1/4=115][Q:1/4=113][Q:1/4=112][Q:1/4=110][Q:1/4=108][Q:1/4=106][Q:1/4=104][Q:1/4=102][Q:1/4=100][Q:1/4=98][Q:1/4=96][Q:1/4=95][Q:1/4=93] | %50
 [=DB]2 [DF]2 [_DG]2 | [CA]6- |[M:2/4] [CA]4 |] %53
V:2
 z2 z2 [A,,E,]2 | [A,,E,]2 [A,,F,]2 [A,,G,]2 | [A,,A,]2 [A,,G,]2 [A,,F,]2 | E,4 A,2 | A,,4 E,2 | %5
 [A,,A,]2 [A,,E,]3 [A,,A,] | [A,,E,]2 [A,,A,]2 [C,C]2 | B,4 z2 | z2 z2 [E,G,D]2 | %9
 [E,G,B,]2 [E,A,C]2 [E,B,D]2 | [E,CE]2 [E,DE]2 [E,=A,E]2 | [B,E]6 | [G,B,E]4 [E,DE]2 | %13
 [F,CE]2 [F,CE]2 [F,_CE]2 | [A,B,=D]2 [G,B,D]2 [F,B,D]2 | [E,G,B,D]6- | [E,G,B,D]4 [E,G,D]2 | %17
 [A,,E,A,]2 [A,,F,]2 [A,,G,]2 | [A,,A,]2 [A,,G,]2 [A,,F,]2 | E,4 z2 | A,,4[K:treble] [A,EA]2 | %21
 [A,EA]2 [A,=DA]2 [A,EA]2 | .[A,CA]2[K:bass] F,2 F,2 | z2 B,2 =A,2 | D,4 D,2 | D,2 D,2 z C | %26
 =D,2 D,2 D,2 | [E,CE]6 | [C,A,]4 [D,A,]2 | [E,A,E]2 [E,B,E]2 [E,A,E]2 | %30
 [E,G,D]2 [E,A,D]2 [E,B,D]2 | [A,,E,A,]6- | [A,,E,A,]4 z2 | [A,,A,]2 [A,,A,]2 [A,,A,]2 | %34
 [A,,A,]>[A,,E,] z2 E,2 | [A,,=D,]2 [A,,D,]2 [A,,D,]2 | [A,,=D,]2 E,2 z2 | %37
 [F,A,C]2 [F,A,C]2 [F,A,C]2 | [B,,F,]2 [B,,F,]2 [B,,F,]2 | [E,G,E]2 [E,G,E]2 [E,A,E]2 | [E,G,E]6 | %41
 [A,,A,]2 [A,,A,]2 [A,,A,]2 | [A,,A,]>[A,,E,] [A,,A,]4 | [F,=A,E]2 [F,A,E]2 [F,A,E]2 | %44
 [B,,B,]>[B,,F,] [B,,B,]4 | [_C,A,]2 [C,A,]2 [C,A,]2 | [_C,A,]2 [C,A,]2 [C,A,]2 | [C,A,]6 | %48
 [D,A,]6 | [E,A,]2 [E,A,]2 [E,A,]2 | [F,A,]2 [B,,A,]2 [E,B,]E, | [A,,E,]6- |[M:2/4] [A,,E,]4 |] %53
V:3
 x6 | x6 | x6 | A,,6 | x6 | x6 | x6 | [E,D]6- | [E,D]4 z2 | x6 | x6 | E,4 z2 | x6 | x6 | x6 | x6 | %16
 x6 | x6 | x6 | A,,4- [A,,A,]2 | x4[K:treble] x2 | x6 | x2[K:bass] x4 | D,6 | x6 | z2 z2 D,2 | x6 | %27
 x6 | x6 | x6 | x6 | x6 | x6 | x6 | z2 A,,4 | x6 | z2 A,,4 | x6 | x6 | x6 | x6 | x6 | x6 | x6 | %44
 x6 | x6 | x6 | x6 | x6 | x6 | x6 | x6 |[M:2/4] x4 |] %53
V:4
 x6 | x6 | x6 | x6 | x6 | x6 | x6 | z2 G,2 B,2- | B,4 E2 | x6 | x6 | z2 z2 F,2 | x6 | x6 | x6 | %15
 z2 c2 z2 | A2 G2 F2 | x6 | x6 | x6 | x6 | x6 | z _G, [F=Ad]2 [CFA]2 | C2 z2 z2 | x6 | x6 | x6 | %27
 x6 | x6 | x6 | x6 | x6 | x6 | x6 | z2 [CE]4 | x6 | [_CF]2 z2 A,2 | x6 | x6 | x6 | x6 | x6 | x6 | %43
 x6 | x6 | x6 | x6 | E2 z2 z2 | x6 | x6 | x6 | x6 |[M:2/4] x4 |] %53

